X: 369
T:Sodr Ls Wigl
% Nottingham Music Database
S:AABCC Corfnye, via EFF
M:6/8
K:A
P:A
A|"D"cBA GAB|"D"ABA AFD|"G"G2G "D7"dcd|"D"a2f "D7"fef|"D"fed "A"ABA|"D"A2B "A7"c2c|"D"f3 A2B|
"Am"ABA DEA|"G"Bde "Em"e2f|"G"g2b "C"A2e|"D"fed "A"A2c|
"D"fgf def|"A"ede efg|"A7"ecd efe|"A"cef eec|
"A7"ABc cBc|efB dBA|"D"g2f fgf|"F#m"ded ABc|
"D""Bm"d2 "A"c3|"Am"eec "D7"def|"Dm"fed A2c|
"D"d3 )FA|"A"cBA "A"cBc|"A"A2B e2f|"A#"fed "D"fed|"A"c3 "A"c3:|


